X:063
T:Jigg TS.063
M:6/8
L:1/8
Q:3/8=120
S:Thomas Sands’ MS,1810,Lincolnshire
R:jig
O:England;Lincolnshire
Z:vmp.Ruairidh Greig, 2011
K:G
D|GBG GDG|BdBG2d|efg dBG|cAA AcAQ|
GBG GDG|BdB GBd|efg d2c|BGGG2:|
|:d|defg2f|edcB2G|BdB dBd|cAAA2d|
defg2f|edc B2d|ede def|gggg2d|
def g2f|edcB2G|BdB dBd|cAAA2d|
GBG GDG|BdB GBd|dfgd2c|BGGG2:|]

